public/home/dao-it/icons/dai.svg

<svg width="37" height="37" viewBox="0 0 37 37" fill="none" xmlns="http://www.w3.org/2000/svg">
<path d="M18.8541 0.124084C22.4431 0.124084 25.9515 1.18834 28.9356 3.18226C31.9197 5.17618 34.2455 8.01022 35.619 11.326C36.9924 14.6418 37.3518 18.2903 36.6516 21.8103C35.9514 25.3303 34.2232 28.5637 31.6854 31.1015C29.1476 33.6392 25.9143 35.3675 22.3943 36.0677C18.8743 36.7678 15.2257 36.4085 11.9099 35.035C8.59414 33.6616 5.7601 31.3358 3.76618 28.3517C1.77226 25.3675 0.708008 21.8592 0.708008 18.2702C0.708008 13.4576 2.61983 8.84202 6.02288 5.43896C9.42594 2.0359 14.0415 0.124084 18.8541 0.124084Z" fill="#DFE225"/>
<mask id="mask0_352_2100" style="mask-type:luminance" maskUnits="userSpaceOnUse" x="7" y="6" width="26" height="25">
<path d="M32.4884 6.69714V30.3437H7.29492V6.69714H32.4884Z" fill="white"/>
</mask>
<g mask="url(#mask0_352_2100)">
<g opacity="0.8">
<mask id="mask1_352_2100" style="mask-type:luminance" maskUnits="userSpaceOnUse" x="14" y="6" width="10" height="11">
<path d="M19.0865 6.69714C17.5452 6.70101 16.0197 7.00777 14.5967 7.6L18.1689 16.2359C18.4751 16.1085 18.8039 16.0442 19.1355 16.047C19.4671 16.0499 19.7947 16.1197 20.0987 16.2522L23.6775 7.61633C22.2404 7.01332 20.698 6.70091 19.1395 6.69714L19.0865 6.69714Z" fill="white"/>
</mask>
<g mask="url(#mask1_352_2100)">
<path d="M24.0294 6.34613V16.5306H14.3184V6.34613H24.0294Z" fill="#242424"/>
</g>
<mask id="mask2_352_2100" style="mask-type:luminance" maskUnits="userSpaceOnUse" x="8" y="7" width="11" height="11">
<path d="M10.7416 10.1763C9.64267 11.2815 8.77271 12.5929 8.18164 14.0351L16.8176 17.6114C16.9388 17.3026 17.1212 17.0214 17.3538 16.7848C17.5864 16.5481 17.8643 16.3609 18.171 16.2343L14.5947 7.59998C13.1524 8.19516 11.8427 9.07087 10.7416 10.1763Z" fill="white"/>
</mask>
<g mask="url(#mask2_352_2100)">
<path d="M23.185 3.30853V23.3265H3.16699V3.30853H23.185Z" fill="#242424"/>
</g>
<mask id="mask3_352_2100" style="mask-type:luminance" maskUnits="userSpaceOnUse" x="20" y="7" width="11" height="11">
<path d="M20.1006 16.2516C20.69 16.5064 21.1571 16.9807 21.4026 17.5741L21.423 17.6279L30.0598 14.0508L30.0385 13.9986C28.8475 11.1126 26.5597 8.8172 23.6777 7.61652L20.1006 16.2516Z" fill="white"/>
</mask>
<g mask="url(#mask3_352_2100)">
<path d="M35.0385 2.48248V22.5004H15.0205V2.48248H35.0385Z" fill="#242424"/>
</g>
<mask id="mask4_352_2100" style="mask-type:luminance" maskUnits="userSpaceOnUse" x="21" y="14" width="10" height="10">
<path d="M21.4235 17.6277C21.6598 18.2339 21.6465 18.9089 21.3867 19.5053L30.0226 23.0824C30.6225 21.6534 30.9345 20.12 30.9408 18.5702C30.9471 17.0203 30.6476 15.4845 30.0594 14.0506L21.4235 17.6277Z" fill="white"/>
</mask>
<g mask="url(#mask4_352_2100)">
<path d="M31.65 13.0187V23.9061H20.29V13.0187H31.65Z" fill="#242424"/>
</g>
<mask id="mask5_352_2100" style="mask-type:luminance" maskUnits="userSpaceOnUse" x="7" y="14" width="10" height="10">
<path d="M7.295 18.5739C7.30066 20.1084 7.60568 21.6271 8.19296 23.0449L8.21581 23.0971L16.8525 19.52L16.8297 19.4678C16.5845 18.874 16.579 18.2084 16.8142 17.6106L8.18234 14.0351C7.59101 15.475 7.28947 17.0173 7.295 18.5739Z" fill="white"/>
</mask>
<g mask="url(#mask5_352_2100)">
<path d="M17.4798 13.3706V23.4277H6.94434V13.3706H17.4798Z" fill="#242424"/>
</g>
<mask id="mask6_352_2100" style="mask-type:luminance" maskUnits="userSpaceOnUse" x="20" y="19" width="11" height="11">
<path d="M20.8563 20.2889C20.6301 20.5117 20.3628 20.6886 20.0693 20.8098L23.6465 29.4457C26.5319 28.2546 28.8271 25.9676 30.0285 23.0865L21.3918 19.5085C21.2651 19.8007 21.0836 20.0659 20.8571 20.2898" fill="white"/>
</mask>
<g mask="url(#mask6_352_2100)">
<path d="M35.0394 14.4236V34.4416H15.0215V14.4236H35.0394Z" fill="#242424"/>
</g>
<mask id="mask7_352_2100" style="mask-type:luminance" maskUnits="userSpaceOnUse" x="8" y="19" width="11" height="11">
<path d="M8.21875 23.0972C8.81646 24.527 9.69057 25.8247 10.7909 26.916C11.8913 28.0072 13.1963 28.8705 14.631 29.4563L18.2081 20.8204C17.9105 20.7023 17.6383 20.5279 17.4065 20.307C17.1729 20.0834 16.9856 19.816 16.8555 19.52L8.21875 23.0972Z" fill="white"/>
</mask>
<g mask="url(#mask7_352_2100)">
<path d="M22.9789 14.4237V34.4417H3.08008V14.4237H22.9789Z" fill="#242424"/>
</g>
<mask id="mask8_352_2100" style="mask-type:luminance" maskUnits="userSpaceOnUse" x="14" y="20" width="10" height="11">
<path d="M19.1398 20.9943C18.8213 20.9968 18.5054 20.938 18.2091 20.8212L14.6328 29.4563C16.0522 30.0389 17.5712 30.3403 19.1055 30.3437H19.1406C20.6856 30.3422 22.2153 30.0371 23.6426 29.4457L20.0695 20.8065C19.7756 20.928 19.461 20.9917 19.143 20.9943" fill="white"/>
</mask>
<g mask="url(#mask8_352_2100)">
<path d="M24.3826 20.0433V30.9306H13.9688V20.0433H24.3826Z" fill="#242424"/>
</g>
</g>
</g>
</svg>

<svg width="37" height="37" viewBox="0 0 37 37" fill="none" xmlns="http://www.w3.org/2000/svg"><path d="M18.854.124a18.146 18.146 0 1 1 0 36.292 18.146 18.146 0 0 1 0-36.292" fill="#DFE225"/><mask id="a" style="mask-type:luminance" maskUnits="userSpaceOnUse" x="7" y="6" width="26" height="25"><path d="M32.488 6.697v23.647H7.295V6.697z" fill="#fff"/></mask><g opacity=".8" mask="url(#a)"><mask id="b" style="mask-type:luminance" maskUnits="userSpaceOnUse" x="14" y="6" width="10" height="11"><path d="M19.087 6.697c-1.542.004-3.067.31-4.49.903l3.572 8.636a2.46 2.46 0 0 1 1.93.016l3.578-8.636a11.8 11.8 0 0 0-4.537-.919z" fill="#fff"/></mask><g mask="url(#b)"><path d="M24.03 6.346v10.185h-9.712V6.346z" fill="#242424"/></g><mask id="c" style="mask-type:luminance" maskUnits="userSpaceOnUse" x="8" y="7" width="11" height="11"><path d="M10.742 10.176a11.8 11.8 0 0 0-2.56 3.86l8.636 3.575a2.46 2.46 0 0 1 1.353-1.377L14.595 7.6a11.8 11.8 0 0 0-3.853 2.576" fill="#fff"/></mask><g mask="url(#c)"><path d="M23.185 3.309v20.018H3.167V3.308z" fill="#242424"/></g><mask id="d" style="mask-type:luminance" maskUnits="userSpaceOnUse" x="20" y="7" width="11" height="11"><path d="M20.1 16.252a2.47 2.47 0 0 1 1.303 1.322l.02.054 8.637-3.577-.021-.052a11.78 11.78 0 0 0-6.361-6.382z" fill="#fff"/></mask><g mask="url(#d)"><path d="M35.039 2.482V22.5H15.02V2.482z" fill="#242424"/></g><mask id="e" style="mask-type:luminance" maskUnits="userSpaceOnUse" x="21" y="14" width="10" height="10"><path d="M21.424 17.628a2.46 2.46 0 0 1-.037 1.877l8.636 3.577a11.78 11.78 0 0 0 .036-9.031z" fill="#fff"/></mask><g mask="url(#e)"><path d="M31.65 13.019v10.887H20.29V13.02z" fill="#242424"/></g><mask id="f" style="mask-type:luminance" maskUnits="userSpaceOnUse" x="7" y="14" width="10" height="10"><path d="M7.295 18.574c.006 1.534.31 3.053.898 4.47l.023.053 8.637-3.577-.023-.052a2.48 2.48 0 0 1-.016-1.857l-8.632-3.576a11.8 11.8 0 0 0-.887 4.539" fill="#fff"/></mask><g mask="url(#f)"><path d="M17.48 13.37v10.058H6.944V13.37z" fill="#242424"/></g><mask id="g" style="mask-type:luminance" maskUnits="userSpaceOnUse" x="20" y="19" width="11" height="11"><path d="M20.856 20.289a2.5 2.5 0 0 1-.787.52l3.578 8.637a11.8 11.8 0 0 0 6.382-6.36l-8.637-3.577a2.5 2.5 0 0 1-.535.78" fill="#fff"/></mask><g mask="url(#g)"><path d="M35.04 14.424v20.018H15.021V14.424z" fill="#242424"/></g><mask id="h" style="mask-type:luminance" maskUnits="userSpaceOnUse" x="8" y="19" width="11" height="11"><path d="M8.219 23.097a11.78 11.78 0 0 0 6.412 6.36l3.577-8.637a2.46 2.46 0 0 1-1.353-1.3z" fill="#fff"/></mask><g mask="url(#h)"><path d="M22.979 14.424v20.018H3.08V14.424z" fill="#242424"/></g><mask id="i" style="mask-type:luminance" maskUnits="userSpaceOnUse" x="14" y="20" width="10" height="11"><path d="M19.14 20.994a2.5 2.5 0 0 1-.93-.173l-3.577 8.635c1.42.583 2.938.884 4.473.888h.035a11.8 11.8 0 0 0 4.502-.898l-3.573-8.64a2.5 2.5 0 0 1-.927.188" fill="#fff"/></mask><g mask="url(#i)"><path d="M24.383 20.043v10.888H13.969V20.043z" fill="#242424"/></g></g></svg>
